src/16/panel/process-syncing.svg

<svg xmlns="http://www.w3.org/2000/svg" width="16" height="16"><defs><style id="current-color-scheme" type="text/css"></style></defs><path d="M2 1c-.554 0-1 .446-1 1v2.283A1.958 1.958 0 0 1 2 4h2.586l1.707-1.707A1 1 0 0 1 7 2h1c0-.554-.446-1-1-1zm5 2L5 5H2c-.554 0-1 .446-1 1v7c0 1.108.892 2 2 2h10c1.108 0 2-.892 2-2V4c0-.554-.446-1-1-1zm2 3l4 4h-2v2H9v-2zM6 8h2v6l-4-4h2z" fill="currentColor" color="#bebebe"/></svg>

<svg xmlns="http://www.w3.org/2000/svg" width="16" height="16" version="1.1">
 <defs>
  <style id="current-color-scheme" type="text/css">
   .ColorScheme-Text { color:#bebebe; } .ColorScheme-Highlight { color:#5294e2; }
  </style>
 </defs>
 <path style="fill:currentColor" class="ColorScheme-Text" d="M 2,1 C 1.446,1 1,1.446 1,2 V 4.2832 C 1.2965,4.1077 1.636,4 2,4 H 3 4 4.5859 L 6.293,2.293 C 6.4805,2.1055 6.7348,2.0001 7,2 H 8 C 8,1.446 7.554,1 7,1 Z M 7,3 5,5 H 4 3 2 C 1.446,5 1,5.446 1,6 V 7 8 10 11 13 C 1,14.108 1.892,15 3,15 H 13 C 14.108,15 15,14.108 15,13 V 11 10 4 C 15,3.446 14.554,3 14,3 Z M 9,6 13,10 H 12 11 V 12 H 9 V 10 Z M 6,8 H 8 V 10 14 L 4,10 H 5 6 Z"/>
</svg>
